!!!ONB: MCCC : IJH0439_04 : Extracted Monophonic Melody
!!!COM: Haydn, Joseph
!!!OPR: String Quartet in E major
!!!OMV: 4
!!!SCT: Hob.III:25 ; Op.17 No.1
!!!ODT: 1771///
**kern
*thru
*k[f#c#g#d#]
*E:
*clefG
*M2/4
*MM160
8b
=1
8g#
8a
8b
8cc#
=2
8dd#
8ee
8ff#
8gg#
=3
8aa
8r
8gg#
8r
=4
8.ff#
32ee
32ff#
8ee
8r
=5
8ccc#
8r
8bb
8r
=6
4.r
8b
=7
8g#
8a
8b
8cc#
=8
8dd#
8ee
8ff#
8gg#
=9
8aa
8r
8gg#
8r
=10
8.ff#
32ee
32ff#
8ee
8r
=11
8dd#
8r
8ee
8r
=12
2r
=13
2r
=14
8r
8ee
8ee
8ee
=15
2ee[
=16
8ee]
8ee
8ee
8ee
=17
2ee[
=18
8ee]
8ee
8ee
8ee
=19
2ee
=20
8dd
8cc#
8b
8a
=21
4g#
4g#
=22
4.g#
8e
=23
4a
8cc#
8a
=24
4g#
8f#
8e
=25
4a
8cc#
8a
=26
4g#
8f#
8e
=27
4a
8.a
16a
=28
4a
16a
32b
32cc#
32dd
32ee
32ff#
32gg#
=29
4aa
8.aa
16aa
=30
2aa
=31
4gg#
8.e
16gg#
=32
4aa#
8.e
16aa#
=33
4bb
4bb
=34
4bb
8r
8ff#
=35
8dd#
8ee
8ff#
8gg#
=36
8ff#
8bb
8aa#
8gg#
=37
4ff#
8ee
8dd#
=38
4ff#
8ee
8dd#
=39
8cc#
8dd#
8ee
8ff#
=40
8ee
8eee
8ccc#
8aa#
=41
4ee
8dd#
8cc#
=42
4ee
8dd#
8cc#
=43
2dd
=44
8ee
8dd
8cc#
8dd
=45
4cc#
4cc#
=46
2cc#
=47
2b
=48
8cc#
8b
8a#
8b
=49
4a#
4a#
=50
2a#
=51
2ff#[
=52
4ff#]
4ee#
=53
4ff#
4ee
=54
4dd
4cc#
=55
2b
=56
2dd
=57
8e#
8g#
8b
8dd
=58
8ee#
8gg#
8bb
8ddd
=59
2ddd
=60
2e#
=61
8e
8a#
8cc#
8ee
=62
8aa#
8ccc#
8eee
8eee
=63
2eee
=64
2e
=65
16d#
16f#
8b
8b
8b
=66
16g#
16b
8ee
8ee
8ee
=67
2f#
=68
2cc#
=69
16dd#
16ff#
8bb
8bb
8bb
=70
12gg#
12ff#
12ee
12eee
12ddd#
12ccc#
=71
2ff#
=72
2ccc#
=73
8bb
4r
8b
=74
8d#
8e
8f#
8b
=75
8e
8f#
8g#
8b
=76
8f#
8g#
8a
8b
=77
4g#
16gg#
16ff#
16gg#
16aa#
=78
8bb
8gg#
8ff#
8ee
=79
16dd#
16cc#
16dd#
16ee
8ff#
8dd#
=80
2cc#
=81
4b
8r
8b
=82
8d#
8e
8f#
8b
=83
8e
8f#
8g#
8b
=84
8f#
8g#
8a
8b
=85
8g#
8a
8b
8cc#
=86
8dd#
8ee
8ff#
8gg#
=87
8aa
8r
8gg#
8r
=88
8.ff#
32ee
32ff#
8ee
8r
=89
8ccc#
8r
8bb
8r
=90
4.r
8b
=91
8g#
8a
8b
8cc#
=92
8dd#
8ee
8ff#
8gg#
=93
8aa
8r
8gg#
8r
=94
8.ff#
32ee
32ff#
8ee
8r
=95
8dd#
8r
8ee
8r
=96
2r
=97
2r
=98
8r
8ee
8ee
8ee
=99
2ee[
=100
8ee]
8ee
8ee
8ee
=101
2ee[
=102
8ee]
8ee
8ee
8ee
=103
2ee[
=104
4ee]
4ee#
=105
2ff#[
=106
8ff#]
8ff#
8ff#
8ff#
=107
2ff#[
=108
8ff#]
8ff#
8ff#
8ff#
=109
2ff#[
=110
8ff#]
8ff#
8ff#
8ff#
=111
2ff#[
=112
4ff#]
4ff##
=113
2gg#[
=114
8gg#]
8gg#
8gg#
8gg#
=115
2gg#[
=116
8gg#]
8gg#
8gg#
8gg#
=117
2gg#[
=118
8gg#]
8gg#
8gg#
8gg#
=119
2gg#[
=120
4gg#]
4ff##
=121
4gg#
4ff#
=122
4ee
4dd#
=123
2cc#
=124
2ee
=125
2ee
=126
8ee
8dd
8cc#
8b
=127
4a
8cc#
8a
=128
4g#
8f#
8e
=129
4a
8cc#
8a
=130
4g#
8f#
8e
=131
4a
8cc#
8a
=132
4g#
8b
8g#
=133
2f##[
=134
2f##]
=135
4f##
4f##[
=136
4f##]
4f##
=137
2f#
=138
16e
16g#
8cc#
8cc#
8cc#
=139
12aa
12gg#
12ff#
12ee
12dd#
12cc#
=140
2g#
=141
2dd#
=142
16cc#
16ee
8ccc#
8ccc#
8ccc#
=143
12aa
12gg#
12ff#
12ee
12dd#
12cc#
=144
2g#
=145
2dd#
=146
4cc#
8r
8cc#
=147
8e
8f#
8g#
8cc#
=148
8f#
8g#
8a
8cc#
=149
8g#
8ee
8gg#
8ff#
=150
8ee
8dd#
8cc#
8b
=151
8a
8b
8cc#
8b
=152
8a
8g#
8f#
8e
=153
8d#
8e
8f#
8b
=154
8e
8f#
8g#
8b
=155
8f#
8g#
8a
8b
=156
8g#
8a
8b
8cc#
=157
8dd#
8ee
8ff#
8gg#
=158
8aa
8r
8gg#
8r
=159
8.ff#
32ee
32ff#
8ee
8r
=160
8ccc#
8r
8bb
8r
=161
4.r
8gg#
=162
8bb
8aa
8gg#
8ff#
=163
8ee
8dd#
8cc#
8b
=164
8a
8r
8g#
8r
=165
8cc#
8r
8b
8r
=166
8dd#
8r
8ee
8r
=167
2r
=168
2gg
=169
8aa
8gg
8ff#
8gg
=170
4ff#
4ff#
=171
2ff#
=172
2ee
=173
8ff#
8ee
8dd#
8ee
=174
4dd#
4dd#
=175
2dd#
=176
2g
=177
8a
8g
8f#
8g
=178
4f#
4f#
=179
2f#
=180
2e
=181
8f#
8e
8d#
8e
=182
4d#
4d#
=183
2d#
=184
2bb[
=185
4bb]
4aa#
=186
4bb
4aa
=187
4gg
4ff#
=188
2ee
=189
2gg
=190
8a#
8cc#
8ee
8gg
=191
8aa#
8ccc#
8eee
8ggg
=192
2ggg
=193
2a#
=194
8a
8dd#
8ff#
8aa
=195
8bb
8ddd#
8fff#
8aaa
=196
2aaa
=197
2a
=198
16g#
16b
8ee
8ee
8ee
=199
16cc#
16ff#
8aa
8aa
8aa
=200
2b
=201
2ff#
=202
12gg#
12ff#
12ee
8eee
8eee
=203
12ccc#
12bb
12aa
12gg#
12ff#
12ee
=204
2b
=205
2ff#
=206
4ee
8r
8ee
=207
8g#
8a
8b
8ee
=208
8a
8b
8cc#
8ee
=209
8b
8cc#
8dd
8ee
=210
4cc#
16ccc#
16bb
16ccc#
16ddd#
=211
8eee
8ccc#
8bb
8aa
=212
16gg#
16ff#
16gg#
16aa
8bb
8ee
=213
2ff#
=214
4ee
8r
8b
=215
8d#
8e
8f#
8b
=216
8e
8f#
8g#
8b
=217
8f#
8g#
8a
8r
=218
4ee
4r
=219
2r
=220
2r
=221
8r
8ee
8ee
8ee
=222
2ee[
=223
8ee]
8ee
8ee
8ee
=224
2ee[
=225
8ee]
8ee
8ee
8ee
=226
2ee
=227
8dd
8cc#
8b
8a
=228
4g#
4g#
=229
4.g#
8e
=230
4a
8cc#
8a
=231
4g#
8f#
8e
=232
4a
8cc#
8a
=233
4g#
8f#
8e
=234
4a
8cc#
8a
=235
8g#
8f#
8e
8d#
=236
4e
8g#
8e
=237
4d#
8c#
8B
=238
4e
8g#
8e
=239
4d#
8c#
8B
=240
4e
4e
=241
4e
4r
==
*-
